sources/design/Outline/E.svg

<svg:svg xmlns:cc="http://creativecommons.org/ns#" xmlns:dc="http://purl.org/dc/elements/1.1/" xmlns:inkscape="http://www.inkscape.org/namespaces/inkscape" xmlns:rdf="http://www.w3.org/1999/02/22-rdf-syntax-ns#" xmlns:sodipodi="http://sodipodi.sourceforge.net/DTD/sodipodi-0.dtd" xmlns:svg="http://www.w3.org/2000/svg" xml:space="preserve" width="1000" height="1000" version="1.1" style="clip-rule:evenodd;fill-rule:evenodd;image-rendering:optimizeQuality;shape-rendering:geometricPrecision;text-rendering:geometricPrecision" viewBox="0 0 1000 1000" id="svg10" sodipodi:docname="E.svg" inkscape:version="1.1.1 (3bf5ae0d25, 2021-09-20)"><svg:text text-anchor="middle" x="278.026" y="3.172425" id="top" inkscape:label="top" style="clip-rule:evenodd;fill-rule:evenodd;image-rendering:optimizeQuality;shape-rendering:geometricPrecision;text-rendering:geometricPrecision">✛</svg:text><svg:g id="path850"><svg:path style="color:#000000;clip-rule:nonzero;fill:#1a5fb4;fill-rule:nonzero;stroke-linecap:round;stroke-linejoin:round;-inkscape-stroke:none;paint-order:fill stroke markers;shape-rendering:auto" d="M 400.66211,-35.324219 C 367.16708,-35.088438 333.6814,-33.262343 300.35546999999997,-29.84375 C 204.95364,-20.057377 110.95507,2.7986715 21.707031,37.884766 C -0.1681532,46.484561 -10.990226,67.625024 -5.6953125,90.251953 L 14.341797,175.88086 C 16.794239,186.36097 25.077112,199.50920000000002 39.347656,204.13281 C 40.677061,204.56354000000002 41.99463,204.82209 43.3125,205.08398 C 48.690217,249.65049 51.401776,294.52915 51.447266,339.41211 C 47.065708,339.75779 42.691754,340.19491 38.308594,340.51953 C 16.209796,342.15621 -0.5301474099999979,360.29366 -0.26953125,382.52734 L 0.6796875,463.48437 C 0.81366826,474.91456 6.3227145,488.34745000000004 17.419922,496.07617 C 24.173003,500.7794 32.099605,502.78301999999996 39.689453,502.82227 C 26.725858000000002,591.79461 3.2525612000000024,679.26103 -30.314453,762.64258 C -36.49598,777.9976899999999 -37.28544,797.85102 -26.029297,813.3261699999999 C -14.773152999999999,828.8013199999999 4.616763800000001,834.1878099999999 21.201172,832.82422 C 102.53256999999999,826.1370499999999 184.16185000000002,823.0414999999999 265.76562,823.55273 C 341.2968,824.02592 416.81016999999997,827.5884 492.05078000000003,834.22656 C 504.88986000000006,835.3593099999999 518.9135200000001,830.8587399999999 528.375,821.10156 C 537.83648,811.34438 541.92231,797.1027799999999 540.33203,784.2656199999999 L 527.26758,678.79687 C 525.67611,665.95012 518.0340299999999,652.54626 505.77734,645.49609 C 493.52065999999996,638.44593 478.50613,638.54327 466.68359,643.30273 C 423.05127999999996,660.86805 377.30436999999995,673.2548 330.77539,680.08398 C 280.96988,687.3940699999999 230.19457,688.26874 180.13477,682.84766 C 183.38559,610.6832400000001 186.32987,538.5059100000001 189.07031,466.32031 C 240.8692,457.59869000000003 293.4467,453.50943 345.93555000000003,454.49023 C 374.77586,455.02914 403.59158,457.03833 432.22852,460.50781 C 457.08789,463.51963 482.74716,440.79344000000003 482.26953000000003,415.45898 L 480.57422,325.5 C 480.33619000000004,312.87392 474.42386000000005,299.71283 464.01758,291.54883 C 453.6113,283.38483 439.50101,280.78374 427.21289,283.49609 C 371.61940000000004,295.76725 315.64338000000004,306.30917 259.39453000000003,315.09961 C 237.69582000000003,318.49063 215.94591000000003,321.53709 194.17187,324.40625 C 196.27274,261.36285 198.17322000000001,198.31297999999998 199.88477,135.25781 C 262.85433,119.51628000000001 331.76054,119.77077 398.76758,129.7168 C 422.53665,133.2449 446.14451,137.86874 469.49023,143.56445 C 495.23332,149.84505 524.16981,130.84547999999998 528.02148,104.23437999999999 L 540.41406,18.617186999999987 C 543.8794399999999,-5.325097000000014 525.3711699999999,-29.108368000000013 501.03124999999994,-31.257812000000015 C 467.6616599999999,-34.204664000000015 434.1571399999999,-35.55999900000002 400.6621099999999,-35.324219000000014 L 400.66211,-35.324219 M 401.08398,24.673828 C 426.92593,24.49192 452.77089,25.371252000000002 478.54687,27.197266 L 470.55859000000004,82.382812 C 449.71013,77.647465 428.72508,73.506377 407.57617,70.367187 C 340.16301,60.36088 268.92378,58.8298 200.70898,73.365234 C 199.23109,64.406386 195.14182,56.066255 189.27734,49.148437 C 227.93239,40.437205 267.07234,33.886057 306.47852,29.84375 C 337.90438,26.620067 369.4891,24.896233 401.08398,24.673828 M 138.30078,91.75 C 125.02505000000001,96.86956 111.94553,102.69032 99.15039100000001,109.39453 C 95.99803900000002,111.04626 92.92752500000002,112.84423000000001 89.82617200000001,114.58789 C 88.70903700000001,108.80743 87.52328700000001,103.04076 86.32031200000002,97.277344 L 138.30078,91.75 M 139.27148,156.54297 C 137.64330999999999,214.91406999999998 135.86677,273.28175999999996 133.9043,331.64258 C 126.42994,332.45981 118.95152,333.23639000000003 111.47070000000001,333.99219 C 111.18334,281.92341999999996 107.41486,229.89855 100.32227,178.32031 C 108.93951,172.60929000000002 117.84554,167.33559 126.99609000000001,162.54102 C 131.03212000000002,160.42628 135.14598,158.47154 139.27148,156.54297 M 420.95312,346.16602 L 421.95117,399.05078000000003 C 397.06082,396.52283000000006 372.07198999999997,394.96744 347.05664,394.50000000000006 C 294.9664,393.52664000000004 242.83383000000003,397.13385000000005 191.37305,405.08008000000007 C 191.61222,398.42930000000007 191.88821000000002,391.7798400000001 192.12305,385.1289100000001 C 217.67793,381.8538500000001 243.20306,378.3569700000001 268.6582,374.3789100000001 C 319.67492000000004,366.4061300000001 370.45447,356.94263000000007 420.95312,346.16602000000006 L 420.95312,346.16602 M 131.81445,392.1875 C 131.52374,400.35153 131.18984,408.51394 130.89257999999998,416.67773 C 123.49355999999997,418.33733 116.07636999999998,419.91212 108.72069999999998,421.75586 C 109.34740999999998,412.65747999999996 109.87292999999998,403.5528 110.28905999999998,394.44140999999996 C 117.46892999999997,393.73475999999994 124.64025999999998,392.94951 131.81444999999997,392.18749999999994 L 131.81445,392.1875 M 128.5625,478.70117 C 125.62758,555.04383 122.51472,631.37874 119.00781,707.69727 A 30.003,30.003 0.0 0,0 144.39844,738.72461 C 208.92921,748.68544 274.88541,748.92919 339.48828000000003,739.44727 C 384.0631,732.9049 427.92486,721.73606 470.20508000000007,706.21484 L 478.47656000000006,772.99023 C 407.84432000000004,767.23361 337.00606000000005,763.99864 266.14062000000007,763.55469 C 187.49143000000007,763.06196 108.83289000000008,765.9667900000001 30.41601600000007,772.01953 C 66.20173200000008,680.00187 90.45750300000006,583.5759 102.54492000000008,485.60547 C 111.19190000000008,483.20453000000003 119.84289000000007,480.82745 128.56250000000009,478.70117000000005 L 128.5625,478.70117" id="path7175" /></svg:g><svg:metadata id="metadata14"><rdf:RDF><cc:Work rdf:about=""><dc:format>image/svg+xml</dc:format><dc:type rdf:resource="http://purl.org/dc/dcmitype/StillImage" /><dc:title /></cc:Work></rdf:RDF></svg:metadata><sodipodi:namedview pagecolor="#ffffff" bordercolor="#666666" borderopacity="1" objecttolerance="10" gridtolerance="10" guidetolerance="10" inkscape:pageopacity="0" inkscape:pageshadow="2" inkscape:window-width="1920" inkscape:window-height="1009" id="namedview12" showgrid="false" inkscape:zoom="1.2005384" inkscape:cx="249.4714" inkscape:cy="47.478698" inkscape:window-x="0" inkscape:window-y="60" inkscape:window-maximized="1" inkscape:current-layer="svg10" showguides="true" inkscape:guide-bbox="true" inkscape:document-rotation="0" inkscape:pagecheckerboard="0"><sodipodi:guide position="0,1000" orientation="0,1" id="guide16" inkscape:label="" inkscape:locked="true" inkscape:color="rgb(0,0,255)" /><sodipodi:guide position="1763.3122,2036.1693" orientation="1000,0" id="guide18" /><sodipodi:guide position="0,200" orientation="0,1" id="guide20" inkscape:label="base" inkscape:locked="true" inkscape:color="rgb(0,0,255)" /><inkscape:grid type="xygrid" id="grid24" originx="-473.37552" originy="-489.69235" /><sodipodi:guide position="0,0" orientation="0,1" id="guide34" inkscape:label="bottom" inkscape:locked="true" inkscape:color="rgb(0,0,255)" /><sodipodi:guide position="225.05109,1693.3186" orientation="0,1" id="guide44" inkscape:label="" inkscape:locked="false" inkscape:color="rgb(0,0,255)" /><sodipodi:guide position="0,900" orientation="0,1" id="guide46" inkscape:label="" inkscape:locked="true" inkscape:color="rgb(0,0,255)" /><sodipodi:guide position="508.79538,562.89264" orientation="-1,0" id="guide841" inkscape:label="width" inkscape:locked="false" inkscape:color="rgb(0,0,255)" /></sodipodi:namedview>
 <svg:defs id="defs4"><inkscape:path-effect effect="fillet_chamfer" id="path-effect855" is_visible="true" lpeversion="1" satellites_param="F,0,0,1,0,13.088895,0,1 @ F,0,0,1,0,0,0,1 @ F,0,0,1,0,14.468093,0,1 @ F,0,0,1,0,19.543697,0,1 @ F,0,0,1,0,0,0,1 @ F,0,0,1,0,0,0,1 @ F,0,0,1,0,13.220489,0,1 | F,0,0,1,0,23.005876,0,1 @ F,0,0,1,0,23.005876,0,1 @ F,0,0,1,0,0,0,1 @ F,0,0,1,0,0,0,1 @ F,0,0,1,0,0,0,1 @ F,0,0,1,0,18.765534,0,1 @ F,0,0,1,0,18.183878,0,1 @ F,0,0,1,0,0,0,1 @ F,0,0,1,0,34.879427,0,1 @ F,0,0,1,0,0,0,1 | F,0,0,1,0,0,0,1 @ F,0,0,1,0,16.990436,0,1 @ F,0,0,1,0,16.89956,0,1 @ F,0,0,1,0,0,0,1 @ F,0,0,1,0,13.691273,0,1 @ F,0,0,1,0,10.95274,0,1" unit="px" method="auto" mode="F" radius="0" chamfer_steps="1" flexible="false" use_knot_distance="true" apply_no_radius="true" apply_with_radius="true" only_selected="true" hide_knots="false" /><inkscape:path-effect effect="spiro" id="path-effect852" is_visible="true" lpeversion="1" /><inkscape:path-effect effect="fillet_chamfer" id="path-effect861" is_visible="true" lpeversion="1" satellites_param="F,0,0,1,0,0,0,1 @ F,0,0,1,0,0,0,1 @ F,0,0,1,0,0,0,1 @ F,0,0,1,0,0,0,1 @ F,0,0,1,0,0,0,1 @ F,0,0,1,0,33.552446,0,1 @ F,0,0,1,0,22.14471,0,1 @ F,0,0,1,0,0,0,1 @ F,0,0,1,0,0,0,1 @ F,0,0,1,0,0,0,1 @ F,0,0,1,0,0,0,1 @ F,0,0,1,0,0,0,1 @ F,0,0,1,0,0,0,1 @ F,0,0,1,0,0,0,1 @ F,0,0,1,0,0,0,1 @ F,0,0,1,0,31.662035,0,1 @ F,0,0,1,0,23.414228,0,1 @ F,0,0,1,0,0,0,1 @ F,0,0,1,0,0,0,1 @ F,0,0,1,0,0,0,1 @ F,0,0,1,0,0,0,1 @ F,0,0,1,0,0,0,1 @ F,0,0,1,0,0,0,1 @ F,0,0,1,0,52.833278,0,1 @ F,0,0,1,0,27.971235,0,1 @ F,0,0,1,0,0,0,1 @ F,0,0,1,0,0,0,1 @ F,0,0,1,0,0,0,1 @ F,0,0,1,0,0,0,1 @ F,0,0,1,0,0,0,1 @ F,0,0,1,0,0,0,1 @ F,0,0,1,0,0,0,1" unit="px" method="auto" mode="F" radius="0" chamfer_steps="1" flexible="false" use_knot_distance="true" apply_no_radius="true" apply_with_radius="true" only_selected="true" hide_knots="false" /><inkscape:path-effect effect="fillet_chamfer" id="path-effect848" is_visible="true" lpeversion="1" satellites_param="F,0,0,1,0,28.876315,0,1 @ F,0,0,1,0,26.963899,0,1 @ F,0,0,1,0,34.130506,0,1 @ F,0,0,1,0,0,0,1 @ F,0,0,1,0,0,0,1 @ F,0,0,1,0,0,0,1 @ F,0,0,1,0,0,0,1 @ F,0,0,1,0,0,0,1 @ F,0,0,1,0,28.793855,0,1 @ F,0,0,1,0,28.697419,0,1 @ F,0,0,1,0,0,0,1 @ F,0,0,1,0,0,0,1 @ F,0,0,1,0,0,0,1 @ F,0,0,1,0,0,0,1 @ F,0,0,1,0,0,0,1 @ F,0,0,1,0,35.993863,0,1 @ F,0,0,1,0,31.679711,0,1 @ F,0,0,1,0,28.447385,0,1 @ F,0,0,1,0,0,0,1" unit="px" method="auto" mode="F" radius="0" chamfer_steps="1" flexible="false" use_knot_distance="true" apply_no_radius="true" apply_with_radius="true" only_selected="true" hide_knots="false" /><inkscape:path-effect effect="spiro" id="path-effect849" is_visible="true" lpeversion="1" /><inkscape:path-effect effect="spiro" id="path-effect851" is_visible="true" lpeversion="1" />
  <svg:style type="text/css" id="style2">
   
    .fil0 {fill:#EF7F1A;fill-rule:nonzero}
   
  </svg:style>
 <inkscape:path-effect effect="spiro" id="path-effect1214" is_visible="true" lpeversion="1" /><inkscape:path-effect effect="spiro" id="path-effect1195" is_visible="true" lpeversion="1" /><inkscape:path-effect effect="spiro" id="path-effect992" is_visible="true" lpeversion="1" /><inkscape:path-effect effect="spiro" id="path-effect1060" is_visible="true" lpeversion="1" /><inkscape:path-effect effect="spiro" id="path-effect1047" is_visible="true" lpeversion="1" /><inkscape:path-effect effect="spiro" id="path-effect1085" is_visible="true" lpeversion="1" /><inkscape:path-effect effect="spiro" id="path-effect1286" is_visible="true" lpeversion="1" /></svg:defs>
 
</svg:svg>

<svg:svg xmlns:cc="http://creativecommons.org/ns#" xmlns:dc="http://purl.org/dc/elements/1.1/" xmlns:inkscape="http://www.inkscape.org/namespaces/inkscape" xmlns:rdf="http://www.w3.org/1999/02/22-rdf-syntax-ns#" xmlns:sodipodi="http://sodipodi.sourceforge.net/DTD/sodipodi-0.dtd" xmlns:svg="http://www.w3.org/2000/svg" xml:space="preserve" width="1000" height="1000" version="1.1" style="clip-rule:evenodd;fill-rule:evenodd;image-rendering:optimizeQuality;shape-rendering:geometricPrecision;text-rendering:geometricPrecision" viewBox="0 0 1000 1000" id="svg10" sodipodi:docname="E.svg" inkscape:version="1.1.1 (3bf5ae0d25, 2021-09-20)"><svg:text text-anchor="middle" x="278.026" y="3.172425" id="top" inkscape:label="top" style="clip-rule:evenodd;fill-rule:evenodd;image-rendering:optimizeQuality;shape-rendering:geometricPrecision;text-rendering:geometricPrecision">✛</svg:text><svg:g id="path850"><svg:path style="color:#000000;clip-rule:nonzero;fill:#1a5fb4;fill-rule:nonzero;stroke-linecap:round;stroke-linejoin:round;-inkscape-stroke:none;shape-rendering:auto" d="m 400.66211,-35.324219 c -33.49503,0.235781 -66.98071,2.061876 -100.30664,5.480469 C 204.95364,-20.057377 110.95507,2.7986715 21.707031,37.884766 -0.1681532,46.484561 -10.990226,67.625024 -5.6953125,90.251953 L 14.341797,175.88086 c 2.452442,10.48011 10.735315,23.62834 25.005859,28.25195 1.329405,0.43073 2.646974,0.68928 3.964844,0.95117 5.377717,44.56651 8.089276,89.44517 8.134766,134.32813 -4.381558,0.34568 -8.755512,0.7828 -13.138672,1.10742 -22.098798,1.63668 -38.83874141,19.77413 -38.57812525,42.00781 l 0.94921875,80.95703 c 0.13398076,11.43019 5.643027,24.86308 16.7402345,32.5918 6.753081,4.70323 14.679683,6.70685 22.269531,6.7461 -12.963595,88.97234 -36.4368918,176.43876 -70.003906,259.82031 -6.181527,15.35511 -6.970987,35.20844 4.285156,50.68359 11.256144,15.47515 30.6460608,20.86164 47.230469,19.49805 81.331398,-6.68717 162.960678,-9.78272 244.564448,-9.27149 75.53118,0.47319 151.04455,4.03567 226.28516,10.67383 12.83908,1.13275 26.86274,-3.36782 36.32422,-13.125 9.46148,-9.75718 13.54731,-23.99878 11.95703,-36.83594 L 527.26758,678.79687 c -1.59147,-12.84675 -9.23355,-26.25061 -21.49024,-33.30078 -12.25668,-7.05016 -27.27121,-6.95282 -39.09375,-2.19336 -43.63231,17.56532 -89.37922,29.95207 -135.9082,36.78125 -49.80551,7.31009 -100.58082,8.18476 -150.64062,2.76368 3.25082,-72.16442 6.1951,-144.34175 8.93554,-216.52735 51.79889,-8.72162 104.37639,-12.81088 156.86524,-11.83008 28.84031,0.53891 57.65603,2.5481 86.29297,6.01758 24.85937,3.01182 50.51864,-19.71437 50.04101,-45.04883 L 480.57422,325.5 c -0.23803,-12.62608 -6.15036,-25.78717 -16.55664,-33.95117 -10.40628,-8.164 -24.51657,-10.76509 -36.80469,-8.05274 -55.59349,12.27116 -111.56951,22.81308 -167.81836,31.60352 -21.69871,3.39102 -43.44862,6.43748 -65.22266,9.30664 2.10087,-63.0434 4.00135,-126.09327 5.7129,-189.14844 62.96956,-15.74153 131.87577,-15.48704 198.88281,-5.54101 23.76907,3.5281 47.37693,8.15194 70.72265,13.84765 25.74309,6.2806 54.67958,-12.71897 58.53125,-39.33007 l 12.39258,-85.617193 c 3.46538,-23.942284 -15.04289,-47.725555 -39.38281,-49.874999 -33.36959,-2.946852 -66.87411,-4.302187 -100.36914,-4.066407 z m 0.42187,59.998047 c 25.84195,-0.181908 51.68691,0.697424 77.46289,2.523438 l -7.98828,55.185546 C 449.71013,77.647465 428.72508,73.506377 407.57617,70.367187 340.16301,60.36088 268.92378,58.8298 200.70898,73.365234 c -1.47789,-8.958848 -5.56716,-17.298979 -11.43164,-24.216797 38.65505,-8.711232 77.795,-15.26238 117.20118,-19.304687 31.42586,-3.223683 63.01058,-4.947517 94.60546,-5.169922 z M 138.30078,91.75 c -13.27573,5.11956 -26.35525,10.94032 -39.150389,17.64453 -3.152352,1.65173 -6.222866,3.4497 -9.324219,5.19336 -1.117135,-5.78046 -2.302885,-11.54713 -3.50586,-17.310546 z m 0.9707,64.79297 c -1.62817,58.3711 -3.40471,116.73879 -5.36718,175.09961 -7.47436,0.81723 -14.95278,1.59381 -22.4336,2.34961 -0.28736,-52.06877 -4.05584,-104.09364 -11.14843,-155.67188 8.61724,-5.71102 17.52327,-10.98472 26.67382,-15.77929 4.03603,-2.11474 8.14989,-4.06948 12.27539,-5.99805 z m 281.68164,189.62305 0.99805,52.88476 c -24.89035,-2.52795 -49.87918,-4.08334 -74.89453,-4.55078 -52.09024,-0.97336 -104.22281,2.63385 -155.68359,10.58008 0.23917,-6.65078 0.51516,-13.30024 0.75,-19.95117 25.55488,-3.27506 51.08001,-6.77194 76.53515,-10.75 51.01672,-7.97278 101.79627,-17.43628 152.29492,-28.21289 z M 131.81445,392.1875 c -0.29071,8.16403 -0.62461,16.32644 -0.92187,24.49023 -7.39902,1.6596 -14.81621,3.23439 -22.17188,5.07813 0.62671,-9.09838 1.15223,-18.20306 1.56836,-27.31445 7.17987,-0.70665 14.3512,-1.4919 21.52539,-2.25391 z m -3.25195,86.51367 c -2.93492,76.34266 -6.04778,152.67757 -9.55469,228.9961 a 30.003,30.003 0 0 0 25.39063,31.02734 c 64.53077,9.96083 130.48697,10.20458 195.08984,0.72266 44.57482,-6.54237 88.43658,-17.71121 130.7168,-33.23243 l 8.27148,66.77539 c -70.63224,-5.75662 -141.4705,-8.99159 -212.33594,-9.43554 -78.64919,-0.49273 -157.30773,2.4121 -235.724604,8.46484 35.785716,-92.01766 60.041487,-188.44363 72.128904,-286.41406 8.64698,-2.40094 17.29797,-4.77802 26.01758,-6.9043 z" id="path7163" /></svg:g><svg:metadata id="metadata14"><rdf:RDF><cc:Work rdf:about=""><dc:format>image/svg+xml</dc:format><dc:type rdf:resource="http://purl.org/dc/dcmitype/StillImage" /><dc:title /></cc:Work></rdf:RDF></svg:metadata><sodipodi:namedview pagecolor="#ffffff" bordercolor="#666666" borderopacity="1" objecttolerance="10" gridtolerance="10" guidetolerance="10" inkscape:pageopacity="0" inkscape:pageshadow="2" inkscape:window-width="1920" inkscape:window-height="1009" id="namedview12" showgrid="false" inkscape:zoom="1.2005384" inkscape:cx="249.4714" inkscape:cy="47.478698" inkscape:window-x="0" inkscape:window-y="60" inkscape:window-maximized="1" inkscape:current-layer="svg10" showguides="true" inkscape:guide-bbox="true" inkscape:document-rotation="0" inkscape:pagecheckerboard="0"><sodipodi:guide position="0,1000" orientation="0,1" id="guide16" inkscape:label="" inkscape:locked="true" inkscape:color="rgb(0,0,255)" /><sodipodi:guide position="1763.3122,2036.1693" orientation="1000,0" id="guide18" /><sodipodi:guide position="0,200" orientation="0,1" id="guide20" inkscape:label="base" inkscape:locked="true" inkscape:color="rgb(0,0,255)" /><inkscape:grid type="xygrid" id="grid24" originx="-473.37552" originy="-489.69235" /><sodipodi:guide position="0,0" orientation="0,1" id="guide34" inkscape:label="bottom" inkscape:locked="true" inkscape:color="rgb(0,0,255)" /><sodipodi:guide position="225.05109,1693.3186" orientation="0,1" id="guide44" inkscape:label="" inkscape:locked="false" inkscape:color="rgb(0,0,255)" /><sodipodi:guide position="0,900" orientation="0,1" id="guide46" inkscape:label="" inkscape:locked="true" inkscape:color="rgb(0,0,255)" /><sodipodi:guide position="508.79538,562.89264" orientation="-1,0" id="guide841" inkscape:label="width" inkscape:locked="false" inkscape:color="rgb(0,0,255)" /></sodipodi:namedview>
 <svg:defs id="defs4"><inkscape:path-effect effect="fillet_chamfer" id="path-effect855" is_visible="true" lpeversion="1" satellites_param="F,0,0,1,0,13.088895,0,1 @ F,0,0,1,0,0,0,1 @ F,0,0,1,0,14.468093,0,1 @ F,0,0,1,0,19.543697,0,1 @ F,0,0,1,0,0,0,1 @ F,0,0,1,0,0,0,1 @ F,0,0,1,0,13.220489,0,1 | F,0,0,1,0,23.005876,0,1 @ F,0,0,1,0,23.005876,0,1 @ F,0,0,1,0,0,0,1 @ F,0,0,1,0,0,0,1 @ F,0,0,1,0,0,0,1 @ F,0,0,1,0,18.765534,0,1 @ F,0,0,1,0,18.183878,0,1 @ F,0,0,1,0,0,0,1 @ F,0,0,1,0,34.879427,0,1 @ F,0,0,1,0,0,0,1 | F,0,0,1,0,0,0,1 @ F,0,0,1,0,16.990436,0,1 @ F,0,0,1,0,16.89956,0,1 @ F,0,0,1,0,0,0,1 @ F,0,0,1,0,13.691273,0,1 @ F,0,0,1,0,10.95274,0,1" unit="px" method="auto" mode="F" radius="0" chamfer_steps="1" flexible="false" use_knot_distance="true" apply_no_radius="true" apply_with_radius="true" only_selected="true" hide_knots="false" /><inkscape:path-effect effect="spiro" id="path-effect852" is_visible="true" lpeversion="1" /><inkscape:path-effect effect="fillet_chamfer" id="path-effect861" is_visible="true" lpeversion="1" satellites_param="F,0,0,1,0,0,0,1 @ F,0,0,1,0,0,0,1 @ F,0,0,1,0,0,0,1 @ F,0,0,1,0,0,0,1 @ F,0,0,1,0,0,0,1 @ F,0,0,1,0,33.552446,0,1 @ F,0,0,1,0,22.14471,0,1 @ F,0,0,1,0,0,0,1 @ F,0,0,1,0,0,0,1 @ F,0,0,1,0,0,0,1 @ F,0,0,1,0,0,0,1 @ F,0,0,1,0,0,0,1 @ F,0,0,1,0,0,0,1 @ F,0,0,1,0,0,0,1 @ F,0,0,1,0,0,0,1 @ F,0,0,1,0,31.662035,0,1 @ F,0,0,1,0,23.414228,0,1 @ F,0,0,1,0,0,0,1 @ F,0,0,1,0,0,0,1 @ F,0,0,1,0,0,0,1 @ F,0,0,1,0,0,0,1 @ F,0,0,1,0,0,0,1 @ F,0,0,1,0,0,0,1 @ F,0,0,1,0,52.833278,0,1 @ F,0,0,1,0,27.971235,0,1 @ F,0,0,1,0,0,0,1 @ F,0,0,1,0,0,0,1 @ F,0,0,1,0,0,0,1 @ F,0,0,1,0,0,0,1 @ F,0,0,1,0,0,0,1 @ F,0,0,1,0,0,0,1 @ F,0,0,1,0,0,0,1" unit="px" method="auto" mode="F" radius="0" chamfer_steps="1" flexible="false" use_knot_distance="true" apply_no_radius="true" apply_with_radius="true" only_selected="true" hide_knots="false" /><inkscape:path-effect effect="fillet_chamfer" id="path-effect848" is_visible="true" lpeversion="1" satellites_param="F,0,0,1,0,28.876315,0,1 @ F,0,0,1,0,26.963899,0,1 @ F,0,0,1,0,34.130506,0,1 @ F,0,0,1,0,0,0,1 @ F,0,0,1,0,0,0,1 @ F,0,0,1,0,0,0,1 @ F,0,0,1,0,0,0,1 @ F,0,0,1,0,0,0,1 @ F,0,0,1,0,28.793855,0,1 @ F,0,0,1,0,28.697419,0,1 @ F,0,0,1,0,0,0,1 @ F,0,0,1,0,0,0,1 @ F,0,0,1,0,0,0,1 @ F,0,0,1,0,0,0,1 @ F,0,0,1,0,0,0,1 @ F,0,0,1,0,35.993863,0,1 @ F,0,0,1,0,31.679711,0,1 @ F,0,0,1,0,28.447385,0,1 @ F,0,0,1,0,0,0,1" unit="px" method="auto" mode="F" radius="0" chamfer_steps="1" flexible="false" use_knot_distance="true" apply_no_radius="true" apply_with_radius="true" only_selected="true" hide_knots="false" /><inkscape:path-effect effect="spiro" id="path-effect849" is_visible="true" lpeversion="1" /><inkscape:path-effect effect="spiro" id="path-effect851" is_visible="true" lpeversion="1" />
  <svg:style type="text/css" id="style2">
   
    .fil0 {fill:#EF7F1A;fill-rule:nonzero}
   
  </svg:style>
 <inkscape:path-effect effect="spiro" id="path-effect1214" is_visible="true" lpeversion="1" /><inkscape:path-effect effect="spiro" id="path-effect1195" is_visible="true" lpeversion="1" /><inkscape:path-effect effect="spiro" id="path-effect992" is_visible="true" lpeversion="1" /><inkscape:path-effect effect="spiro" id="path-effect1060" is_visible="true" lpeversion="1" /><inkscape:path-effect effect="spiro" id="path-effect1047" is_visible="true" lpeversion="1" /><inkscape:path-effect effect="spiro" id="path-effect1085" is_visible="true" lpeversion="1" /><inkscape:path-effect effect="spiro" id="path-effect1286" is_visible="true" lpeversion="1" /></svg:defs>
 
</svg:svg>
